X: 781
T: Twelfth Eve
P: Longways for as many as will
%R: reel
B: "The Dancing-Master: Containing Directions and Tunes for Dancing" printed by W. Pearson for John Walsh, London ca. 1709
S: 7: DMDfD http://digital.nls.uk/special-collections-of-printed-music/pageturner.cfm?id=89751228 p.326
Z: 2013 John Chambers <jc:trillian.mit.edu>
M: C|
L: 1/8
K: Gm
% - - - - - - - - - - - - - - - - - - - - - - - - -
FE |\
D2 G4 A2 | BA Bc Bcd2 | c2A2 c2f2 | A4 A2FE |\
D2 G4 A2 | BA Bc Bcd2 | gfed cB AG | G6 |]
GA |\
B2B2 B2F2 | B2d2 d2f2 | f2d2 cdcB | A6 Bc |\
Bcd2 d2cB | cde2 e2dc | d2g2 ^fga^f | g6 |]
% - - - - - - - - - - - - - - - - - - - - - - - - -
%%begintext align
%% The 1. man cast off below the 2. man, and goes within-side the 3. man, and stand below him, his Partner
%% does the same after him .| Then cast up into the 2. cu. place, and set to your Partner: then cast
%% up into your own place :| The 1. man turns the 2. wo. the 2. man turns the 1. wo. .| Then cross over
%% below the 2. cu. and go the Figure :|
%% [DMDfD]
%%endtext
%%sep 1 8 500

%%sep 1 1 500
%%sep 1 1 500
